X: 140
T:Elbow Room
M:C
L:1/8
K:DMinor
|: DE | FDA,D GDA,D | FDA,D GDFD | B,DFD B,DED | B,DFD B,(E E2) |
FDA,D GDA,D | FDA,D GDFD | (3ABA GD FD (3EDC | CDDC D2 :|
|: Ac | dD (3DDD cDGA | dD (3DDD c2 D2 | (3A=Bc Bc AB (3CBA |GECDEFGA
|dD (3DDD cDGA | dD (3DDD c2 D2 | (3A=Bc Bc AB (3CBA | GECE D2 :|
